X: 864
T: Cooleen bridge
C: anon.
O: Ireland
B: Francis O'Neill: "The Dance Music of Ireland" (1907) no. 780
R: Reel
Z: Transcribed by Frank Nordberg - http://www.musicaviva.com
F: http://www.musicaviva.com/abc/tunes/ireland/oneill-1001/oneill-1001-078
0.abc
M: C
L: 1/8
K: Em
F|Eee^d e2(BA)|GBA(F GE)EF|D(dd^c) d2(AF)|GBA(G FD)DF|E(ee^d) efg(a|fe)df
 e(BBA)|G2BG (FG)A(c|BG)A(F GE)E||
f|gfe(f ge)be|geb(a ge)e^c|d(efg) a2(fd)|gef(d e)dBA|(G2B)(G F2)AF|E(ee^d
) e3(f|ge)f(d ed)B(^c|(3dcB) A(F GE)E|]
W:
W:
W: From Musica Viva - http://www.musicaviva.com
W: the Internet center for free sheet music downloads.


